Obsidian-Light/status/scalable/mail-attachment-symbolic.svg

<svg height="16" width="16" xmlns="http://www.w3.org/2000/svg"><path d="m8.3023266.99999999c-.1970553.00296891-.3989437.07699161-.5348761.21881301l-5.2758243 5.2515112c-.1902299.184167-.2623203.47347-.1945004.729377.0678223.255905.2536231.443015.5105636.510563.2569436.067549.5444635-.005037.7293766-.1945l5.0570113-5.0326984h4.1331337v4.2303844l-6.5400767 6.5157638-2.6257557-2.625756 4.3033221-4.2790088h.9968143v1.045439l-2.7230059 2.7230058c-.1902315.184168-.2623219.449158-.1945004.705064.0678223.255906.2779365.443015.5348762.510564.256942.067548.5201494-.005036.705064-.1945l2.9418191-2.9418188c.142395-.135385.240144-.314303.243126-.510564v-2.066567c.003067-.198701-.077559-.394192-.218813-.534876-.141251-.1406834-.335372-.2218666-.534877-.2188128h-2.0422539c-.1970554.0029689-.398944.076991-.5348765.2188128l-5.057011 5.0326978c-.2872086.28611-.2878621.758681 0 1.04544l3.6711955 3.646883c.2879197.286701.758172.286053 1.0454398 0l7.2937661-7.2694528c.142395-.135385.240146-.314303.243125-.510564l-.024312-5.251511c-.000922-.2293944-.107732-.4451324-.291751-.5835013-.129331-.1037273-.271763-.1686214-.437626-.17018791z" fill="#bebebe"/></svg>

<?xml version="1.0" encoding="UTF-8" standalone="no"?>
<!-- Created with Inkscape (http://www.inkscape.org/) -->

<svg
   xmlns:dc="http://purl.org/dc/elements/1.1/"
   xmlns:cc="http://creativecommons.org/ns#"
   xmlns:rdf="http://www.w3.org/1999/02/22-rdf-syntax-ns#"
   xmlns:svg="http://www.w3.org/2000/svg"
   xmlns="http://www.w3.org/2000/svg"
   xmlns:xlink="http://www.w3.org/1999/xlink"
   xmlns:sodipodi="http://sodipodi.sourceforge.net/DTD/sodipodi-0.dtd"
   xmlns:inkscape="http://www.inkscape.org/namespaces/inkscape"
   width="16"
   height="16"
   id="svg2"
   sodipodi:version="0.32"
   inkscape:version="0.48.1 r9760"
   version="1.0"
   sodipodi:docname="mail-attachment-symbolic.svg"
   inkscape:output_extension="org.inkscape.output.svg.inkscape">
  <defs
     id="defs4">
    <linearGradient
       id="StandardGradient"
       gradientTransform="matrix(0.8458416,0,0,1.0765258,-1.4962477,-3.0220357)"
       x1="12.80275"
       y1="3.7361259"
       x2="12.80275"
       y2="16.759111"
       gradientUnits="userSpaceOnUse">
      <stop
         id="stop3337"
         offset="0"
         style="stop-color:#000000;stop-opacity:0.86274511;" />
      <stop
         id="stop3339"
         offset="1"
         style="stop-color:#000000;stop-opacity:0.47058824;" />
    </linearGradient>
    <linearGradient
       inkscape:collect="always"
       xlink:href="#StandardGradient"
       id="linearGradient3177"
       gradientUnits="userSpaceOnUse"
       gradientTransform="matrix(0.6580662,0,0,0.8375389,-0.1555227,-4.4631556)"
       x1="12.80275"
       y1="6.5211606"
       x2="12.80275"
       y2="23.23851" />
  </defs>
  <sodipodi:namedview
     id="base"
     pagecolor="#ffffff"
     bordercolor="#9a9a9a"
     borderopacity="1"
     inkscape:pageopacity="0.0"
     inkscape:pageshadow="2"
     inkscape:zoom="16.491346"
     inkscape:cx="-23.846167"
     inkscape:cy="1.9538506"
     inkscape:document-units="px"
     inkscape:current-layer="layer1"
     showgrid="true"
     inkscape:showpageshadow="false"
     showguides="true"
     inkscape:guide-bbox="true"
     inkscape:window-width="1920"
     inkscape:window-height="1022"
     inkscape:window-x="0"
     inkscape:window-y="25"
     inkscape:window-maximized="1">
    <sodipodi:guide
       orientation="1,0"
       position="0,112"
       id="guide2383" />
    <sodipodi:guide
       orientation="0,1"
       position="26.278146,128"
       id="guide2385" />
    <sodipodi:guide
       orientation="1,0"
       position="128,54.082119"
       id="guide2387" />
    <inkscape:grid
       type="xygrid"
       id="grid3672"
       visible="true"
       enabled="true" />
  </sodipodi:namedview>
  <metadata
     id="metadata7">
    <rdf:RDF>
      <cc:Work
         rdf:about="">
        <dc:format>image/svg+xml</dc:format>
        <dc:type
           rdf:resource="http://purl.org/dc/dcmitype/StillImage" />
        <dc:title></dc:title>
      </cc:Work>
    </rdf:RDF>
  </metadata>
  <g
     inkscape:label="Calque 1"
     inkscape:groupmode="layer"
     id="layer1"
     style="display:inline">
    <path
       style="opacity:1;fill:#bebebe;fill-opacity:1;stroke:none;stroke-width:0.99999970000000005;stroke-linecap:round;stroke-linejoin:miter;stroke-miterlimit:4;stroke-dasharray:none;stroke-opacity:1;display:inline"
       d="M 8.3023266,0.99999999 C 8.1052713,1.0029689 7.9033829,1.0769916 7.7674505,1.218813 L 2.4916262,6.4703242 C 2.3013963,6.6544912 2.2293059,6.9437942 2.2971258,7.1997012 C 2.3649481,7.4556062 2.5507489,7.6427162 2.8076894,7.7102642 C 3.064633,7.7778132 3.3521529,7.7052272 3.537066,7.5157642 L 8.5940773,2.4830658 L 12.727211,2.4830658 L 12.727211,6.7134502 L 6.1871343,13.229214 L 3.5613786,10.603458 L 7.8647007,6.3244492 L 8.861515,6.3244492 L 8.861515,7.3698882 L 6.1385091,10.092894 C 5.9482776,10.277062 5.8761872,10.542052 5.9440087,10.797958 C 6.011831,11.053864 6.2219452,11.240973 6.4788849,11.308522 C 6.7358269,11.37607 6.9990343,11.303486 7.1839489,11.114022 L 10.125768,8.1722032 C 10.268163,8.0368182 10.365912,7.8579002 10.368894,7.6616392 L 10.368894,5.5950722 C 10.371961,5.3963712 10.291335,5.2008802 10.150081,5.0601962 C 10.00883,4.9195128 9.814709,4.8383296 9.615204,4.8413834 L 7.5729501,4.8413834 C 7.3758947,4.8443523 7.1740061,4.9183744 7.0380736,5.0601962 L 1.9810626,10.092894 C 1.693854,10.379004 1.6932005,10.851575 1.9810626,11.138334 L 5.6522581,14.785217 C 5.9401778,15.071918 6.4104301,15.07127 6.6976979,14.785217 L 13.991464,7.5157642 C 14.133859,7.3803792 14.23161,7.2014612 14.234589,7.0052002 L 14.210277,1.7536892 C 14.209355,1.5242948 14.102545,1.3085568 13.918526,1.1701879 C 13.789195,1.0664606 13.646763,1.0015665 13.4809,0.99999999 L 8.3023266,0.99999999 z"
       id="Symbol"
       sodipodi:nodetypes="cccssccccccccccssccccsccccccccccscc" />
  </g>
</svg>
